public/assets/icons/file-doc.svg

<svg
      width="40"
      height="40"
      viewBox="0 0 40 40"
      fill="none"
      xmlns="http://www.w3.org/2000/svg"
    >
      <g clipPath="url(#clip0_5564_18660)">
        <path
          fillRule="evenodd"
          clipRule="evenodd"
          d="M13.1705 0H26.7157L38.6766 11.9586V34.9271C38.6766 37.7184 36.3928 40 33.6038 40H13.1705C10.3815 40 8.09766 37.7184 8.09766 34.9271V5.07289C8.09766 2.28148 10.3816 0 13.1705 0Z"
          fill="#3B48A3"
        />
        <path
          fillRule="evenodd"
          clipRule="evenodd"
          d="M26.7168 0L38.6777 11.9586H28.0084C27.2975 11.9586 26.7168 11.3802 26.7168 10.6692V0Z"
          fill="#2F3982"
        />
        <path
          fillRule="evenodd"
          clipRule="evenodd"
          d="M2.43758 17.0315H29.9852C30.5978 17.0315 31.1008 17.5321 31.1008 18.1448V28.2517C31.1008 28.8644 30.5978 29.3673 29.9852 29.3673H2.43758C1.82484 29.3673 1.32422 28.8644 1.32422 28.2517V18.1448C1.32422 17.5321 1.82484 17.0315 2.43758 17.0315Z"
          fill="#2F3982"
        />
        <path
          d="M16.212 19.0948C14.71 19.0948 13.4881 20.3167 13.4881 21.8186V24.5801C13.4881 26.0821 14.7101 27.304 16.212 27.304C17.714 27.304 18.9359 26.082 18.9359 24.5801V21.8186C18.9359 20.3166 17.714 19.0948 16.212 19.0948ZM17.6443 24.5801C17.6443 25.3698 17.0018 26.0123 16.2121 26.0123C15.4223 26.0123 14.7798 25.3698 14.7798 24.5801V21.8186C14.7798 21.0289 15.4223 20.3864 16.2121 20.3864C17.0018 20.3864 17.6443 21.0289 17.6443 21.8186V24.5801ZM25.7873 24.5801C25.7873 26.0821 24.5654 27.304 23.0635 27.304C21.5616 27.304 20.3397 26.082 20.3397 24.5801V21.8186C20.3397 20.3166 21.5616 19.0948 23.0635 19.0948C24.5654 19.0948 25.7873 20.3167 25.7873 21.8186C25.7873 22.1753 25.4982 22.4644 25.1415 22.4644C24.7848 22.4644 24.4957 22.1753 24.4957 21.8186C24.4957 21.0289 23.8532 20.3864 23.0635 20.3864C22.2738 20.3864 21.6313 21.0289 21.6313 21.8186V24.5801C21.6313 25.3698 22.2738 26.0123 23.0635 26.0123C23.8532 26.0123 24.4957 25.3698 24.4957 24.5801C24.4957 24.2234 24.7848 23.9343 25.1415 23.9343C25.4982 23.9344 25.7873 24.2235 25.7873 24.5801ZM9.36055 19.0948H7.2825C6.92578 19.0948 6.63672 19.3839 6.63672 19.7405V26.6582C6.63672 27.0149 6.92586 27.304 7.2825 27.304H9.36055C10.8626 27.304 12.0845 26.082 12.0845 24.5801V21.8186C12.0845 20.3166 10.8626 19.0948 9.36055 19.0948ZM10.7928 24.5801C10.7928 25.3698 10.1503 26.0123 9.36055 26.0123H7.92836V20.3863H9.36055C10.1503 20.3863 10.7928 21.0288 10.7928 21.8185V24.5801Z"
          fill="white"
        />
      </g>
      <defs>
        <clipPath id="clip0_5564_18660">
          <rect width="40" height="40" fill="white" />
        </clipPath>
      </defs>
    </svg>

<svg xmlns="http://www.w3.org/2000/svg" width="40" height="40" fill="none"><path fill="#3B48A3" d="M13.17 0h13.546l11.96 11.959v22.968c0 2.791-2.283 5.073-5.072 5.073H13.17c-2.79 0-5.073-2.282-5.073-5.073V5.073C8.098 2.28 10.382 0 13.17 0"/><path fill="#2F3982" d="m26.717 0 11.96 11.959H28.009c-.71 0-1.291-.579-1.291-1.29zM2.438 17.032h27.547c.613 0 1.116.5 1.116 1.113v10.107a1.12 1.12 0 0 1-1.116 1.115H2.438a1.12 1.12 0 0 1-1.114-1.115V18.145c0-.613.5-1.113 1.114-1.113"/><path fill="#fff" d="M16.212 19.095a2.727 2.727 0 0 0-2.724 2.724v2.761a2.727 2.727 0 0 0 2.724 2.724 2.727 2.727 0 0 0 2.724-2.724V21.82a2.727 2.727 0 0 0-2.724-2.724m1.432 5.485c0 .79-.642 1.432-1.432 1.432s-1.432-.642-1.432-1.432V21.82c0-.79.642-1.433 1.432-1.433s1.432.643 1.432 1.433zm8.143 0a2.727 2.727 0 0 1-2.723 2.724 2.727 2.727 0 0 1-2.724-2.724V21.82a2.727 2.727 0 0 1 2.724-2.724 2.727 2.727 0 0 1 2.723 2.724.646.646 0 1 1-1.291 0c0-.79-.643-1.433-1.432-1.433-.79 0-1.433.643-1.433 1.433v2.761a1.434 1.434 0 0 0 2.864 0 .646.646 0 1 1 1.292 0M9.361 19.095H7.282a.646.646 0 0 0-.645.646v6.917c0 .357.289.646.646.646H9.36a2.727 2.727 0 0 0 2.723-2.724V21.82a2.727 2.727 0 0 0-2.723-2.724m1.432 5.485c0 .79-.643 1.432-1.432 1.432H7.928v-5.626h1.433c.79 0 1.432.643 1.432 1.433z"/></svg>
